img/logos/gitlab.svg

<?xml version="1.0" encoding="UTF-8" standalone="no" ?>
<svg width="256px" height="236px" viewBox="0 0 256 236" version="1.1" xmlns="http://www.w3.org/2000/svg" xmlns:xlink="http://www.w3.org/1999/xlink" preserveAspectRatio="xMinYMin meet">
    <g>
        <path d="M128.07485,236.074667 L128.07485,236.074667 L175.17885,91.1043048 L80.9708495,91.1043048 L128.07485,236.074667 L128.07485,236.074667 Z" fill="#E24329"></path>
        <path d="M128.07485,236.074423 L80.9708495,91.104061 L14.9557638,91.104061 L128.07485,236.074423 L128.07485,236.074423 Z" fill="#FC6D26"></path>
        <path d="M14.9558857,91.1044267 L14.9558857,91.1044267 L0.641828571,135.159589 C-0.663771429,139.17757 0.766171429,143.57955 4.18438095,146.06275 L128.074971,236.074789 L14.9558857,91.1044267 L14.9558857,91.1044267 Z" fill="#FCA326"></path>
        <path d="M14.9558857,91.1045486 L80.9709714,91.1045486 L52.6000762,3.79026286 C51.1408762,-0.703146667 44.7847619,-0.701927619 43.3255619,3.79026286 L14.9558857,91.1045486 L14.9558857,91.1045486 Z" fill="#E24329"></path>
        <path d="M128.07485,236.074423 L175.17885,91.104061 L241.193935,91.104061 L128.07485,236.074423 L128.07485,236.074423 Z" fill="#FC6D26"></path>
        <path d="M241.193935,91.1044267 L241.193935,91.1044267 L255.507992,135.159589 C256.813592,139.17757 255.38365,143.57955 251.96544,146.06275 L128.07485,236.074789 L241.193935,91.1044267 L241.193935,91.1044267 Z" fill="#FCA326"></path>
        <path d="M241.193935,91.1045486 L175.17885,91.1045486 L203.549745,3.79026286 C205.008945,-0.703146667 211.365059,-0.701927619 212.824259,3.79026286 L241.193935,91.1045486 L241.193935,91.1045486 Z" fill="#E24329"></path>
    </g>
</svg>

<svg width="256" height="236" viewBox="0 0 256 236" xmlns="http://www.w3.org/2000/svg" preserveAspectRatio="xMinYMin meet"><path d="M128.075 236.075l47.104-144.97H80.97l47.105 144.97z" fill="#E24329"/><path d="M128.075 236.074L80.97 91.104H14.957l113.12 144.97z" fill="#FC6D26"/><path d="M14.956 91.104L.642 135.16c-1.306 4.018.124 8.42 3.542 10.903l123.89 90.012L14.957 91.105z" fill="#FCA326"/><path d="M14.956 91.105H80.97L52.6 3.79c-1.46-4.493-7.815-4.492-9.274 0l-28.37 87.315z" fill="#E24329"/><path d="M128.075 236.074l47.104-144.97h66.014l-113.12 144.97z" fill="#FC6D26"/><path d="M241.194 91.104l14.314 44.056c1.306 4.018-.124 8.42-3.543 10.903l-123.89 90.012 113.12-144.97z" fill="#FCA326"/><path d="M241.194 91.105H175.18L203.55 3.79c1.46-4.493 7.815-4.492 9.274 0l28.37 87.315z" fill="#E24329"/></svg>
